icon/fa/sack-dollar.svg

<svg xmlns="http://www.w3.org/2000/svg" viewBox="0 0 512 512"><!--! Font Awesome Free 6.1.2 by @fontawesome - https://fontawesome.com License - https://fontawesome.com/license/free (Icons: CC BY 4.0, Fonts: SIL OFL 1.1, Code: MIT License) Copyright 2022 Fonticons, Inc.--><path d="M320 96H192l-47.4-71.12C137.5 14.24 145.1 0 157.9 0h196.2c12.8 0 20.4 14.24 13.3 24.88L320 96zm-128 32h128c3.8 2.5 8.1 5.3 12.1 8.4C389.7 172.7 512 250.9 512 416c0 53-43 96-96 96H96c-53.02 0-96-43-96-96 0-165.1 122.3-243.3 179-279.6 4.9-3.1 9.2-5.9 13-8.4zm84.1 96c0-11.1-9-20.1-21-20.1-10.2 0-19.2 9-19.2 20.1v6c-5.6 1.2-11.8 2.9-15.9 5.1-14.9 6.8-27.9 19.4-31.1 37.7-1.8 10.2-.8 20.1 3.4 29 4.2 8.8 10.7 15 17.3 19.5 11.6 7.9 26.9 12.5 38.6 16l2.2.6c14 4.3 23.4 7.4 29.3 11.7 2.5 1.8 3.4 3.2 3.7 4.1.4.8 1 2.6.3 6.6-.6 3.5-2.5 6.5-8 8.8-6.1 2.6-16 3.9-28.8 1.9-6-1-16.7-4.6-26.2-7.8-2.2-.8-4.4-1.5-6.4-2.2-10.5-3.5-21.8 2.2-25.3 12.7s2.2 21.8 12.7 24.4c1.2 1.3 2.7 1.8 4.4 2.4 7 2.7 20.3 6.9 29.8 9.1v6.4c0 11.1 9 20.1 19.2 20.1 12 0 21-9 21-20.1v-5.5c5.3-1 10.5-3.4 15.3-4.6 15.8-6.7 28.4-19.7 31.7-38.7 1.8-10.4 1-20.4-3-29.5-3.9-9-10.2-15.6-16.9-20.4-12.1-8.9-28.3-13.7-40.4-17.4l-1.7-.2c-13.3-4.3-22.9-7.3-29-11.5-2.6-1.8-3.4-3-3.6-3.5-.2-.4-.8-1.6-.2-5 .4-2 1.9-5.3 8.2-8.1 5.6-2.9 16.4-4.5 28.6-3.5 4.4 1.6 17.9 4.2 21.8 5.2 10.6 2.9 21.6-3.5 24.4-14.2 2.9-10.6-3.5-21.6-14.2-24.4-4.4-1.2-14.4-3.2-21-4.4V224z"/></svg>

<svg xmlns="http://www.w3.org/2000/svg" viewBox="0 0 512 512" height="1em" width="1em">
<!--! Font Awesome Free 6.1.2 by @fontawesome - https://fontawesome.com License - https://fontawesome.com/license/free (Icons: CC BY 4.0, Fonts: SIL OFL 1.1, Code: MIT License) Copyright 2022 Fonticons, Inc.-->
  <path d="M320 96H192L144.6 24.88C137.5 14.24 145.1 0 157.9 0H354.1C366.9 0 374.5 14.24 367.4 24.88L320 96zM192 128H320C323.8 130.5 328.1 133.3 332.1 136.4C389.7 172.7 512 250.9 512 416C512 469 469 512 416 512H96C42.98 512 0 469 0 416C0 250.9 122.3 172.7 179 136.4C183.9 133.3 188.2 130.5 192 128V128zM276.1 224C276.1 212.9 267.1 203.9 255.1 203.9C244.9 203.9 235.9 212.9 235.9 224V230C230.3 231.2 224.1 232.9 220 235.1C205.1 241.9 192.1 254.5 188.9 272.8C187.1 283 188.1 292.9 192.3 301.8C196.5 310.6 203 316.8 209.6 321.3C221.2 329.2 236.5 333.8 248.2 337.3L250.4 337.9C264.4 342.2 273.8 345.3 279.7 349.6C282.2 351.4 283.1 352.8 283.4 353.7C283.8 354.5 284.4 356.3 283.7 360.3C283.1 363.8 281.2 366.8 275.7 369.1C269.6 371.7 259.7 373 246.9 371C240.9 370 230.2 366.4 220.7 363.2C218.5 362.4 216.3 361.7 214.3 361C203.8 357.5 192.5 363.2 189 373.7C185.5 384.2 191.2 395.5 201.7 398.1C202.9 399.4 204.4 399.9 206.1 400.5C213.1 403.2 226.4 407.4 235.9 409.6V416C235.9 427.1 244.9 436.1 255.1 436.1C267.1 436.1 276.1 427.1 276.1 416V410.5C281.4 409.5 286.6 407.1 291.4 405.9C307.2 399.2 319.8 386.2 323.1 367.2C324.9 356.8 324.1 346.8 320.1 337.7C316.2 328.7 309.9 322.1 303.2 317.3C291.1 308.4 274.9 303.6 262.8 299.9L261.1 299.7C247.8 295.4 238.2 292.4 232.1 288.2C229.5 286.4 228.7 285.2 228.5 284.7C228.3 284.3 227.7 283.1 228.3 279.7C228.7 277.7 230.2 274.4 236.5 271.6C242.1 268.7 252.9 267.1 265.1 268.1C269.5 269.7 283 272.3 286.9 273.3C297.5 276.2 308.5 269.8 311.3 259.1C314.2 248.5 307.8 237.5 297.1 234.7C292.7 233.5 282.7 231.5 276.1 230.3L276.1 224z"/>
</svg>
